X:156
T: ES WAREN ZWEI KOENIGSKINDER
N: E0084B
O: Europa, Mitteleuropa, Deutschland, Niederrhein; Bergisches Land
R: erzaehlendes Volks - Lied, Sage, Liebe, Leid, Tod
M: 6/8
L: 1/16
K: G
_B2 | G2G2A2_B2A2B2 | G4_B2A4
B2 | G2G2A2c2_B2A2 | G4F2G4
GA | _B2B2B2c2c2c2 | d6c4
d2 | _B2A2G2F2G2A2 | G8z2

@@@ Tune index: 3806
